packages/tokens/icons/legal/size16Px.svg

<svg viewBox="0 0 16 16" fill="none" xmlns="http://www.w3.org/2000/svg" width="1em" height="1em"><path d="M5.5 13.5H10.5" stroke="currentColor" stroke-linecap="round"/><path d="M8 4L8 13.5" stroke="currentColor"/><line x1="1.5" y1="5.5" x2="14.5" y2="5.5" stroke="currentColor" stroke-linecap="round"/><path d="M9.5 3C9.5 3.82843 8.82843 4.5 8 4.5C7.17157 4.5 6.5 3.82843 6.5 3C6.5 2.17157 7.17157 1.5 8 1.5C8.82843 1.5 9.5 2.17157 9.5 3Z" stroke="currentColor"/><path d="M6.36314 9.81831C6.02402 10.7978 5.09337 11.5 4 11.5C2.90663 11.5 1.97598 10.7978 1.63686 9.81831C1.61238 9.74762 1.62481 9.68981 1.67872 9.63C1.74166 9.56017 1.85829 9.5 2 9.5H6C6.14171 9.5 6.25834 9.56017 6.32128 9.63C6.37519 9.68981 6.38762 9.74762 6.36314 9.81831Z" stroke="currentColor"/><path d="M6 9.5L4 6L2 9.5" stroke="currentColor" stroke-linejoin="round"/><path d="M14.3631 9.81831C14.024 10.7978 13.0934 11.5 12 11.5C10.9066 11.5 9.97598 10.7978 9.63686 9.81831C9.61238 9.74762 9.62481 9.68981 9.67872 9.63C9.74166 9.56017 9.85829 9.5 10 9.5H14C14.1417 9.5 14.2583 9.56017 14.3213 9.63C14.3752 9.68981 14.3876 9.74762 14.3631 9.81831Z" stroke="currentColor"/><path d="M14 9.5L12 6L10 9.5" stroke="currentColor" stroke-linejoin="round"/></svg>

<svg xmlns="http://www.w3.org/2000/svg" fill="none" viewBox="0 0 16 16" width="1em" height="1em"><path stroke="currentColor" stroke-linecap="round" d="M5.5 13.5h5"/><path stroke="currentColor" d="M8 4v9.5"/><path stroke="currentColor" stroke-linecap="round" d="M1.5 5.5h13"/><path stroke="currentColor" d="M9.5 3a1.5 1.5 0 1 1-3 0 1.5 1.5 0 0 1 3 0ZM6.363 9.818a2.501 2.501 0 0 1-4.726 0c-.025-.07-.012-.128.042-.188.063-.07.18-.13.321-.13h4c.142 0 .258.06.321.13.054.06.067.118.042.188Z"/><path stroke="currentColor" stroke-linejoin="round" d="M6 9.5 4 6 2 9.5"/><path stroke="currentColor" d="M14.363 9.818a2.501 2.501 0 0 1-4.726 0c-.025-.07-.012-.128.042-.188.063-.07.18-.13.321-.13h4c.142 0 .258.06.321.13.054.06.067.118.042.188Z"/><path stroke="currentColor" stroke-linejoin="round" d="M14 9.5 12 6l-2 3.5"/></svg>
